fs/alert_badge_20_filled.svg

<svg viewBox="0 0 20 20" fill="none" xmlns="http://www.w3.org/2000/svg" height="1em" width="1em">
  <path d="M12.4499 16.0016C12.2176 17.1419 11.2091 18 10.0002 18C8.79126 18 7.78275 17.1419 7.55052 16.0016H12.4499ZM9.99783 2C11.0874 2 12.1106 2.27953 12.9929 2.77026C12.3833 3.31937 12 4.11493 12 5C12 6.65685 13.3431 8 15 8C15.3507 8 15.6874 7.93982 16.0002 7.82923L15.9992 11.408L16.9529 13.9951L16.9786 14.0796L16.994 14.1664L16.9992 14.2546C16.9992 14.5697 16.8035 14.845 16.4773 14.9618L16.3638 14.9947L16.2492 15.0046H3.75154C3.66305 15.0046 3.57525 14.9889 3.49221 14.9583C3.20531 14.8526 3.01655 14.5865 3.00977 14.2422L3.01436 14.1247L3.04781 13.9952L3.99919 11.411L4.00028 7.79281L4.00458 7.56824C4.12719 4.45115 6.77122 2 9.99783 2ZM15 7C16.1046 7 17 6.10457 17 5C17 3.89543 16.1046 3 15 3C13.8954 3 13 3.89543 13 5C13 6.10457 13.8954 7 15 7Z" fill="#212121"/>
</svg>

<svg viewBox="0 0 20 20" fill="none" xmlns="http://www.w3.org/2000/svg" height="1em" width="1em">
  <path d="M12.45 16.002a2.501 2.501 0 0 1-4.9 0h4.9ZM9.998 2c1.09 0 2.113.28 2.995.77A3 3 0 0 0 16 7.83v3.579l.953 2.587.026.085.015.086.005.089c0 .315-.195.59-.522.707l-.113.033-.115.01H3.752a.75.75 0 0 1-.26-.047c-.287-.105-.475-.372-.482-.716l.004-.117.034-.13.951-2.584L4 7.793l.005-.225C4.127 4.451 6.77 2 9.998 2ZM15 7a2 2 0 1 0 0-4 2 2 0 0 0 0 4Z" fill="#212121"/>
</svg>
